packages/crayons-icon/icons/colour-fill.svg

<?xml version="1.0" encoding="UTF-8"?>
<svg width="16px" height="16px" viewBox="0 0 16 16" version="1.1" xmlns="http://www.w3.org/2000/svg" xmlns:xlink="http://www.w3.org/1999/xlink">
    <!-- Generator: Sketch 52.6 (67491) - http://www.bohemiancoding.com/sketch -->
    <title>icon/colour-fill</title>
    <desc>Created with Sketch.</desc>
    <g id="Icons-✅" stroke="none" stroke-width="1" fill="none" fill-rule="evenodd">
        <g id="Icons" transform="translate(-80.000000, -2388.000000)" fill="currentColor">
            <g id="icon/colour-fill" transform="translate(80.000000, 2388.000000)">
                <g id="colour-fill">
                    <path d="M14.49,2.45 L13.22,2.45 L13.22,1.82 C13.2145346,0.817114338 12.4028857,0.00546543848 11.4,0 L1.82,0 C0.817114338,0.00546543848 0.00546543848,0.817114338 0,1.82 L0,4.47 C1.23096383e-16,5.47515824 0.814841755,6.29 1.82,6.29 L11.4,6.29 C12.4051582,6.29 13.22,5.47515824 13.22,4.47 L13.22,3.85 L14.49,3.85 C14.5276525,3.84738045 14.5640188,3.8642482 14.586339,3.89468475 C14.6086591,3.9251213 14.6138159,3.96487604 14.6,4 L14.6,7.2 C14.6,7.26075132 14.5507513,7.31 14.49,7.31 L7.81,7.31 C6.98978993,7.31511258 6.32156896,7.97005764 6.3,8.79 L6.3,10.58 C5.57223726,10.8341196 5.08349912,11.5191543 5.08,12.29 L5.08,14.18 C5.07998489,15.1812659 5.8887492,15.9944985 6.89,16 L7.1,16 C8.10515824,16 8.92,15.1851582 8.92,14.18 L8.92,12.29 C8.91650088,11.5191543 8.42776274,10.8341196 7.7,10.58 L7.7,8.79 C7.69978244,8.72744245 7.74765964,8.67521278 7.81,8.67 L14.49,8.67 C14.8904769,8.67 15.2745513,8.51091117 15.5577312,8.22773124 C15.8409112,7.94455131 16,7.5604769 16,7.16 L16,4 C16.0080343,3.59342682 15.8528194,3.20058772 15.5690557,2.90930704 C15.2852919,2.61802636 14.8966443,2.45259597 14.49,2.45 Z M11.82,4.45 C11.82,4.68195959 11.6319596,4.87 11.4,4.87 L1.82,4.87 C1.58804041,4.87 1.4,4.68195959 1.4,4.45 L1.4,1.82 C1.4,1.58804041 1.58804041,1.4 1.82,1.4 L11.4,1.4 C11.6319596,1.4 11.82,1.58804041 11.82,1.82 L11.82,4.45 Z M7.52,14.16 C7.52,14.3919596 7.33195959,14.58 7.1,14.58 L6.89,14.58 C6.77950624,14.5800329 6.67367656,14.5354666 6.59649261,14.4564001 C6.51930866,14.3773336 6.47730503,14.2704609 6.48,14.16 L6.48,12.29 C6.47730503,12.1795391 6.51930866,12.0726664 6.59649261,11.9935999 C6.67367656,11.9145334 6.77950624,11.8699671 6.89,11.87 L7.1,11.87 C7.33195959,11.87 7.52,12.0580404 7.52,12.29 L7.52,14.16 Z" id="Shape"></path>
                </g>
            </g>
        </g>
    </g>
</svg>

<svg viewBox="0 0 16 16"><path d="M14.49 2.45h-1.27v-.63A1.83 1.83 0 0 0 11.4 0H1.82A1.83 1.83 0 0 0 0 1.82v2.65a1.82 1.82 0 0 0 1.82 1.82h9.58a1.82 1.82 0 0 0 1.82-1.82v-.62h1.27a.11.11 0 0 1 .11.15v3.2c0 .06-.05.11-.11.11H7.81A1.52 1.52 0 0 0 6.3 8.79v1.79a1.82 1.82 0 0 0-1.22 1.71v1.89A1.82 1.82 0 0 0 6.89 16h.21a1.82 1.82 0 0 0 1.82-1.82v-1.89a1.82 1.82 0 0 0-1.22-1.71V8.79a.12.12 0 0 1 .11-.12h6.68A1.51 1.51 0 0 0 16 7.16V4a1.52 1.52 0 0 0-1.51-1.55zm-2.67 2a.42.42 0 0 1-.42.42H1.82a.42.42 0 0 1-.42-.42V1.82a.42.42 0 0 1 .42-.42h9.58a.42.42 0 0 1 .42.42v2.63zm-4.3 9.71a.42.42 0 0 1-.42.42h-.21a.41.41 0 0 1-.41-.42v-1.87a.41.41 0 0 1 .41-.42h.21a.42.42 0 0 1 .42.42v1.87z" fill="currentColor" fill-rule="evenodd"/></svg>
